X:1
T:Divinum Mysterium
T:Divinum Mysterium
T:Courtesy of the Cyber Hymnal
Z:Courtesy of the Cyber Hymnal
%%score 1 ( 2 3 ) ( 4 5 )
L:1/8
Q:1/4=100
M:none
K:Eb
V:1 treble nm="Unnamed-000"
V:2 treble nm="Staff 2"
V:3 treble 
V:4 bass nm="Divinum Mysterium"
V:5 bass 
V:1
 (EFGA GF G F E2 | GABc B G A B2) | (cdeB BA G F E2 x2 | CDEF E C D E2) | (EFGA GF B c BGA G2 x2 | %5
 EDCD EC B,2) | (EFGB GE F2 E6) |] %7
V:2
 EFGA G F G F E2 | GABc BGA x2 | (cdeB B A G F [CE]2 x2 | CDEF ECD E2) | %4
 (EFGA G F B c BGA [DB]2 x2 | E D CD EC [F,B,]2) | EFGB G E F2 E6 |] %7
V:3
 C2 D2 x6 | E4- E2 F- F2 | E4- B,ECE D2 x2 | x9 | C2 E2 E3 x8 | B,2 A,2 G,A, x2 | B,4 C2- C D x6 |] %7
V:4
 (G, A, B,2 [B,,B,]2 [F,A,]2 x2 | E,F,G,A, [G,B,]2 [F,C] [B,D]2) | %2
 [A,C]2 z2 ([G,,G,-B,-] [A,,G,B,] [B,,B,]2 [C,G,]2 x2 | %3
 [A,,A,]2 [G,,B,]2 [C,G,]2 [B,,B,] [E,G,]2) | (G, A,) z2 B,2 E,2 E,- E,2 [B,,F,]2 x2 | %5
 [G,,G,]2 E,4 [B,,D,]2 | ([G,,E,-]4 E, G, F,2 [E,G,]6) |] %7
V:5
 E,2- E,2 A,,2 x4 | x9 | x12 | x9 | E,4 x2 A,,2 G,,3 C,2 x2 | x2 A,,B,, C,A,, x2 | %6
 x4 C,2 A,, B,, x6 |] %7

